public/icons/go.svg

<svg width="128" height="128" viewBox="0 0 128 128" fill="none" xmlns="http://www.w3.org/2000/svg">
<path fill-rule="evenodd" clip-rule="evenodd" d="M11.1561 54.829C10.9131 54.829 10.8531 54.707 10.9741 54.526L12.2471 52.889C12.3671 52.707 12.6711 52.586 12.9131 52.586H34.5501C34.7931 52.586 34.8531 52.768 34.7321 52.95L33.7021 54.526C33.5811 54.707 33.2781 54.889 33.0961 54.889L11.1561 54.829ZM2.00409 60.404C1.76209 60.404 1.70109 60.284 1.82209 60.101L3.09509 58.465C3.21609 58.283 3.51909 58.162 3.76209 58.162H31.3981C31.6401 58.162 31.7621 58.344 31.7011 58.526L31.2161 59.98C31.1561 60.223 30.9131 60.344 30.6711 60.344L2.00409 60.404ZM16.6701 65.98C16.4281 65.98 16.3681 65.798 16.4891 65.616L17.3371 64.101C17.4591 63.919 17.7011 63.738 17.9441 63.738H30.0641C30.3071 63.738 30.4281 63.919 30.4281 64.162L30.3081 65.616C30.3081 65.859 30.0651 66.041 29.8831 66.041L16.6701 65.98ZM79.5801 53.738C75.7611 54.708 73.1551 55.435 69.3981 56.404C68.4881 56.647 68.4281 56.707 67.6401 55.798C66.7311 54.768 66.0641 54.101 64.7921 53.495C60.9731 51.617 57.2761 52.162 53.8221 54.405C49.7011 57.071 47.5801 61.01 47.6401 65.919C47.7001 70.768 51.0341 74.768 55.8221 75.435C59.9431 75.98 63.3981 74.525 66.1251 71.435C66.6701 70.768 67.1551 70.041 67.7611 69.192H56.0641C54.7921 69.192 54.4891 68.404 54.9131 67.374C55.7011 65.495 57.1551 62.344 58.0031 60.768C58.1861 60.404 58.6101 59.798 59.5191 59.798H81.5791C81.4591 61.435 81.4591 63.071 81.2161 64.708C80.5491 69.071 78.9131 73.071 76.2461 76.586C71.8821 82.344 66.1861 85.919 58.9731 86.889C53.0341 87.677 47.5191 86.525 42.6711 82.889C38.1861 79.495 35.6411 75.01 34.9741 69.435C34.1861 62.829 36.1251 56.889 40.1251 51.677C44.4281 46.041 50.1251 42.465 57.0951 41.192C62.7921 40.162 68.2461 40.829 73.1551 44.162C76.3671 46.283 78.6701 49.192 80.1851 52.707C80.5491 53.253 80.3071 53.556 79.5791 53.737L79.5801 53.738Z" fill="#00ACD7"/>
<path d="M99.64 87.2529C94.125 87.1309 89.094 85.5559 84.852 81.9189C81.276 78.8289 79.034 74.8889 78.307 70.2219C77.216 63.3739 79.094 57.3129 83.216 51.9199C87.64 46.1009 92.973 43.0709 100.186 41.7979C106.367 40.7079 112.186 41.3139 117.458 44.8889C122.246 48.1619 125.215 52.5859 126.003 58.4039C127.033 66.5859 124.67 73.2529 119.033 78.9499C115.033 83.0099 110.124 85.5559 104.488 86.7069C102.852 87.0099 101.215 87.0709 99.64 87.2529ZM114.064 62.7679C114.004 61.9799 114.004 61.3739 113.882 60.7679C112.792 54.7679 107.276 51.3739 101.519 52.7079C95.882 53.9799 92.246 57.5559 90.913 63.2529C89.822 67.9799 92.125 72.7679 96.488 74.7069C99.822 76.1619 103.155 75.9799 106.367 74.3439C111.155 71.8589 113.761 67.9799 114.064 62.7679V62.7679Z" fill="#00ACD7"/>
</svg>

<svg xmlns="http://www.w3.org/2000/svg" fill="none" viewBox="0 0 128 128"><path fill="#00ACD7" fill-rule="evenodd" d="M11.156 54.829c-.243 0-.303-.122-.182-.303l1.273-1.637c.12-.182.424-.303.666-.303H34.55c.243 0 .303.182.182.364l-1.03 1.576c-.12.181-.424.363-.606.363l-21.94-.06Zm-9.152 5.575c-.242 0-.303-.12-.182-.303l1.273-1.636c.121-.182.424-.303.667-.303h27.636c.242 0 .364.182.303.364l-.485 1.454c-.06.243-.303.364-.545.364l-28.667.06ZM16.67 65.98c-.242 0-.302-.182-.18-.364l.847-1.515c.122-.182.364-.363.607-.363h12.12c.243 0 .364.181.364.424l-.12 1.454c0 .243-.243.425-.425.425L16.67 65.98Zm62.91-12.242c-3.819.97-6.425 1.697-10.182 2.666-.91.243-.97.303-1.758-.606-.909-1.03-1.576-1.697-2.848-2.303-3.819-1.878-7.516-1.333-10.97.91-4.12 2.666-6.242 6.605-6.182 11.514.06 4.849 3.394 8.849 8.182 9.516 4.121.545 7.576-.91 10.303-4 .545-.667 1.03-1.394 1.636-2.243H56.064c-1.272 0-1.575-.788-1.15-1.818.787-1.879 2.241-5.03 3.09-6.606.182-.364.606-.97 1.515-.97h22.06c-.12 1.637-.12 3.273-.363 4.91-.667 4.363-2.303 8.363-4.97 11.878-4.364 5.758-10.06 9.333-17.273 10.303-5.939.788-11.454-.364-16.302-4-4.485-3.394-7.03-7.879-7.697-13.454-.788-6.606 1.151-12.546 5.151-17.758 4.303-5.636 10-9.212 16.97-10.485 5.697-1.03 11.151-.363 16.06 2.97 3.212 2.121 5.515 5.03 7.03 8.545.364.546.122.849-.606 1.03l.001.001Z" clip-rule="evenodd"/><path fill="#00ACD7" d="M99.64 87.253c-5.515-.122-10.546-1.697-14.788-5.334-3.576-3.09-5.818-7.03-6.545-11.697-1.091-6.848.787-12.91 4.909-18.302 4.424-5.82 9.757-8.85 16.97-10.122 6.181-1.09 12-.484 17.272 3.09 4.788 3.274 7.757 7.698 8.545 13.516 1.03 8.182-1.333 14.849-6.97 20.546-4 4.06-8.909 6.606-14.545 7.757-1.636.303-3.273.364-4.848.546Zm14.424-24.485c-.06-.788-.06-1.394-.182-2-1.09-6-6.606-9.394-12.363-8.06-5.637 1.272-9.273 4.848-10.606 10.545-1.091 4.727 1.212 9.515 5.575 11.454 3.334 1.455 6.667 1.273 9.879-.363 4.788-2.485 7.394-6.364 7.697-11.576Z"/></svg>
